Origami/32x32/apps/upsource.svg

<svg width="32" height="32" version="1" xmlns="http://www.w3.org/2000/svg">
 <path d="M 3.4003906,31 C 2.6247906,31 2,30.375209 2,29.599609 v -1 C 2,29.375209 2.6247906,30 3.4003906,30 H 16 28.599609 C 29.375209,30 30,29.375209 30,28.599609 v 1 C 30,30.375209 29.375209,31 28.599609,31 H 16 Z" style="opacity:.2"/>
 <path d="m16 2h-12.6c-0.7756 0-1.4 0.6244-1.4 1.4v12.6h14z" style="fill:#2086e7"/>
 <path d="m16 2h12.6c0.7756 0 1.4 0.6244 1.4 1.4v12.6h-14z" style="fill:#ff8c2a"/>
 <path d="m16 30h-12.6c-0.7756 0-1.4-0.6244-1.4-1.4v-12.6h14z" style="fill:#6655e4"/>
 <path d="m16 30h12.6c0.7756 0 1.4-0.6244 1.4-1.4v-12.6h-14z" style="fill:#2086e7"/>
 <path d="M 3.4003906 2 C 2.6247906 2 2 2.6247906 2 3.4003906 L 2 4.4003906 C 2 3.6247906 2.6247906 3 3.4003906 3 L 16 3 L 28.599609 3 C 29.375209 3 30 3.6247906 30 4.4003906 L 30 3.4003906 C 30 2.6247906 29.375209 2 28.599609 2 L 16 2 L 3.4003906 2 z" style="fill:#ffffff;opacity:.2"/>
 <rect x="6" y="6" width="20" height="20" style="fill:#3f3f3f"/>
 <path d="m9.0002425 23.9999h7.9999995" style="fill:none;opacity:.2;stroke-linecap:round;stroke-width:2;stroke:#000000"/>
 <path d="m9.0002425 23h7.9999995" style="fill:none;stroke-linecap:round;stroke-width:2;stroke:#ffffff"/>
 <path d="m13.000241 9.9996586-4e-6 6.0000014c0 1.514679-1.043947 2.024798-1.999997 2.000001-0.89596 0.0036-2.0000015-0.466262-2.0000015-2.000001l4e-6 -6.0000014" style="fill:none;opacity:.2;stroke-linecap:round;stroke-linejoin:bevel;stroke-width:1.9999999;stroke:#000000"/>
 <path d="m13.000241 8.9997586-4e-6 6.0000014c0 1.514679-1.043947 2.024798-1.999997 2.000001-0.89596 0.0036-2.0000015-0.466262-2.0000015-2.000001l4e-6 -6.0000014" style="fill:none;stroke-linecap:round;stroke-linejoin:bevel;stroke-width:1.9999999;stroke:#ffffff"/>
 <path d="m17.000242 13.999657s4.000003 0.464501 4.000003-1.999997c0-2.4645014-4.000003-2.0000014-4.000003-2.0000014m9.8e-5 8.0000994v-8.0000014" style="fill:none;opacity:.2;stroke-linecap:round;stroke-linejoin:bevel;stroke-width:1.9999999;stroke:#000000"/>
 <path d="m17.000242 12.999757s4.000003 0.464501 4.000003-1.999997c0-2.4645014-4.000003-2.0000014-4.000003-2.0000014m9.8e-5 8.0000994v-8.0000014" style="fill:none;stroke-linecap:round;stroke-linejoin:bevel;stroke-width:1.9999999;stroke:#ffffff"/>
</svg>

<svg xmlns="http://www.w3.org/2000/svg" width="32" height="32" version="1">
 <path style="opacity:0.2" d="M 3.4003906,31 C 2.6247906,31 2,30.375209 2,29.599609 v -1 C 2,29.375209 2.6247906,30 3.4003906,30 H 16 28.599609 C 29.375209,30 30,29.375209 30,28.599609 v 1 C 30,30.375209 29.375209,31 28.599609,31 H 16 Z"/>
 <path style="fill:#2086e7" d="M 16,2 H 3.4 C 2.6244,2 2,2.6244 2,3.4 V 16 h 14 z"/>
 <path style="fill:#ff8c2a" d="M 16,2 H 28.6 C 29.3756,2 30,2.6244 30,3.4 V 16 H 16 Z"/>
 <path style="fill:#6655e4" d="M 16,30 H 3.4 C 2.6244,30 2,29.3756 2,28.6 V 16 h 14 z"/>
 <path style="fill:#2086e7" d="M 16,30 H 28.6 C 29.3756,30 30,29.3756 30,28.6 V 16 H 16 Z"/>
 <path style="fill:#ffffff;opacity:0.2" d="M 3.4003906 2 C 2.6247906 2 2 2.6247906 2 3.4003906 L 2 4.4003906 C 2 3.6247906 2.6247906 3 3.4003906 3 L 16 3 L 28.599609 3 C 29.375209 3 30 3.6247906 30 4.4003906 L 30 3.4003906 C 30 2.6247906 29.375209 2 28.599609 2 L 16 2 L 3.4003906 2 z"/>
 <rect style="fill:#3f3f3f" width="20" height="20" x="6" y="6"/>
 <path style="opacity:0.2;fill:none;stroke:#000000;stroke-width:2;stroke-linecap:round" d="M 9.0002425,23.9999 H 17.000242"/>
 <path style="fill:none;stroke:#ffffff;stroke-width:2;stroke-linecap:round" d="M 9.0002425,23 H 17.000242"/>
 <path style="opacity:0.2;fill:none;stroke:#000000;stroke-width:1.99999988;stroke-linecap:round;stroke-linejoin:bevel" d="m 13.000241,9.9996586 -4e-6,6.0000014 c 0,1.514679 -1.043947,2.024798 -1.999997,2.000001 -0.89596,0.0036 -2.0000015,-0.466262 -2.0000015,-2.000001 l 4e-6,-6.0000014"/>
 <path style="fill:none;stroke:#ffffff;stroke-width:1.99999988;stroke-linecap:round;stroke-linejoin:bevel" d="m 13.000241,8.9997586 -4e-6,6.0000014 c 0,1.514679 -1.043947,2.024798 -1.999997,2.000001 -0.89596,0.0036 -2.0000015,-0.466262 -2.0000015,-2.000001 l 4e-6,-6.0000014"/>
 <path style="opacity:0.2;fill:none;stroke:#000000;stroke-width:1.99999988;stroke-linecap:round;stroke-linejoin:bevel" d="m 17.000242,13.999657 c 0,0 4.000003,0.464501 4.000003,-1.999997 0,-2.4645014 -4.000003,-2.0000014 -4.000003,-2.0000014 m 9.8e-5,8.0000994 V 9.9997566"/>
 <path style="fill:none;stroke:#ffffff;stroke-width:1.99999988;stroke-linecap:round;stroke-linejoin:bevel" d="m 17.000242,12.999757 c 0,0 4.000003,0.464501 4.000003,-1.999997 0,-2.4645014 -4.000003,-2.0000014 -4.000003,-2.0000014 m 9.8e-5,8.0000994 V 8.9998566"/>
</svg>
